!!!!SEGMENT: pl-gd--ee-1638--003-007_marenzio-luca--madrigali-a-quatro-voci-hor-vedi-amor-che-giouinetta-donna.krn
!!!cenid: 15xx:981
!!!COM: Marenzio, Luca
!!!COM-rismID: pe30003955
!!!CDT: ~1553-1599/08/22
!!!CNT: Italian
!!!GTL: Madrigali a quatro voci
!!!OTL: Hor vedi amor che giouinetta donna
!!!OMV: 007
!!!PDT: 1587
!!!AGN:
!!!YEC: Copyright 2022 Narodowy Instytut Fryderyka Chopina (https://polishscores.org)
!!!YEM: License CC-BY-4.0 (https://creativecommons.org/licenses/by/4.0)
!!!SMS-siglum: PL-GD
!!!SMS-shelfmark: Ee 1638
!!!SMS-shelfwork: 003-007 G
!!!SMS-variant:
!!!SMS-altvar:
!!!NIFC-rismSourceID: 1001202747
!!!NIFC-rismChildID: 990039322
!!!NIFC-islandoraID: pl-gd:57883
!!!URL-pdf-islandora: https://repozytorium.nifc.pl/islandora/object/pl-gd%3A57883/datastream/PDF/view
!!!URL-scan: https://polish.musicsources.pl/pl/lokalizacje/galeria/klocki-introligatorskie/655 @EN{Scan on Polish Music Sources Website} @PL{Skany w portalu Dziedzictwo Muzyki Polskiej w otwartym dostępie}
!!!IIIF: https://repozytorium.nifc.pl/islandora/object/pl-gd%3A57883/datastream/IIIF/view
!!!ONB-nifc: UWAGA: zbiór na stronach: Canto: s. 637-653, Alto: s. do 486-501, Tenore: s. do 334-349, Bassus: s. do 182-197. Uwaga: utwory podzielone wg tytułów w spisach treści dostępnych na końcu każdej księgi głosowej.
!!!AIN: 1 alto 1 bass 1 soprn 1 tenor
!!!key: G:mix
**kern	**text	**mod-text	**kern	**text	**mod-text	**kern	**text	**mod-text	**kern	**text	**mod-text
*part4	*	*	*part3	*	*	*part2	*	*	*part1	*	*
*staff4	*	*	*staff3	*	*	*staff2	*	*	*staff1	*	*
*I"BASSO	*	*	*I"TENORE	*	*	*I"ALTO	*	*	*I"CANTO	*	*
*mI"Basso	*	*	*mI"Tenore	*	*	*mI"Alto	*	*	*mI"Soprano	*	*
*I'B	*	*	*I'T	*	*	*I'A	*	*	*I'S	*	*
*ICvox	*	*	*ICvox	*	*	*ICvox	*	*	*ICvox	*	*
*Ibass	*	*	*Itenor	*	*	*Ialto	*	*	*Isoprn	*	*
*clefC4	*	*	*clefC3	*	*	*clefC2	*	*	*clefG2	*	*
*mclefF4	*	*	*mclefGv2	*	*	*mclefG2	*	*	*mclefG2	*	*
*k[]	*	*	*k[]	*	*	*k[]	*	*	*k[]	*	*
*G:mix	*	*	*G:mix	*	*	*G:mix	*	*	*G:mix	*	*
*M2/1	*	*	*M2/1	*	*	*M2/1	*	*	*M2/1	*	*
*met(C)	*	*	*met(C)	*	*	*met(C)	*	*	*met(C)	*	*
*mmet(c)	*	*	*mmet(c)	*	*	*mmet(c)	*	*	*mmet(c)	*	*
=1-	=1-	=1-	=1-	=1-	=1-	=1-	=1-	=1-	=1-	=1-	=1-
*xywh-pl-gd--ee1638-8o--0185:4661,627,3441,748	*	*	*xywh-pl-gd--ee1638-8o--0337:4604,539,3297,793	*	*	*xywh-pl-gd--ee1638-8o--0489:4566,570,3477,757	*	*	*xywh-pl-gd--ee1638-8o--0641:4604,514,3444,760	*	*
00r	.	.	00r	.	.	0r	.	.	1dd	HOr	Hor
.	.	.	.	.	.	.	.	.	2b/	vedi	ve-
.	.	.	.	.	.	.	.	.	2ee\	A-	-di_a-
=2-	=2-	=2-	=2-	=2-	=2-	=2-	=2-	=2-	=2-	=2-	=2-
.	.	.	.	.	.	1g	HOr	Hor	2dd\	-mor	-mor
.	.	.	.	.	.	.	.	.	4r	.	.
.	.	.	.	.	.	.	.	.	4gg\	che	che
.	.	.	.	.	.	2e/	vedi	ve-	8gg\	gio-	gio-
.	.	.	.	.	.	.	.	.	8ff\	-ui-	-vi-
.	.	.	.	.	.	.	.	.	8ee\	-net-	-net-
.	.	.	.	.	.	.	.	.	8dd\	-ta	-ta
.	.	.	.	.	.	2a\	a-	di_a-	2cc\	don-	don-
=3-	=3-	=3-	=3-	=3-	=3-	=3-	=3-	=3-	=3-	=3-	=3-
0r	.	.	4r	.	.	2g\	-mor	-mor	2b/	-na	-na
.	.	.	4g\	Che	Che	.	.	.	.	.	.
.	.	.	8g\	gio-	gio-	4r	.	.	4r	.	.
.	.	.	8f\	-ui-	-vi-	.	.	.	.	.	.
.	.	.	8e\	-net-	-net-	4cc\	Che	che	4ee\	che	che
.	.	.	8d\	-ta	-ta	.	.	.	.	.	.
.	.	.	2c/	dõ-	don-	8cc\	gio-	gio-	8ee\	gio-	gio-
.	.	.	.	.	.	8b\	-ui-	-vi-	8dd\	-ui-	-vi-
.	.	.	.	.	.	8a\	-net-	-net-	8cc\	-net-	-net-
.	.	.	.	.	.	8g\	-ta	-ta	8b/	-ta	-ta
.	.	.	4d\	-na	-na	2f#X\	don-	don-	4a/	don-	don-
.	.	.	4d\	Hor	hor	.	.	.	2dd\	.	.
=4-	=4-	=4-	=4-	=4-	=4-	=4-	=4-	=4-	=4-	=4-	=4-
1G	HOr	Hor	4B/	ve-	ve-	2g\	-na	-na	.	.	.
.	.	.	4e\	-di_a-	-di_a-	.	.	.	2cc\	.	.
.	.	.	2d\	-mor	-mor	4r	.	.	.	.	.
.	.	.	.	.	.	4g\	che	che	4b/	.	.
!	!	!	!	!	!	!	!	!	!LO:SIC:v:t=custos gg	!	!
2E/	vedi	ve-	4r	.	.	8g\	gio-	gio-	1cc	-na	-na
.	.	.	.	.	.	8fny\	-ui-	-vi-	.	.	.
.	.	.	4g\	che	che	8e\	-net-	-net-	.	.	.
.	.	.	.	.	.	8d/	-ta	-ta	.	.	.
2A/	a-	di_a-	8e\	gio-	gio-	2c/	don-	don-	.	.	.
.	.	.	8d\	-ui-	-vi-	.	.	.	.	.	.
.	.	.	8e\	-net-	-net-	.	.	.	.	.	.
.	.	.	8f\	-ta	-ta	.	.	.	.	.	.
!	!	!	!	!	!	!	!	!	!LO:LB:g=original	!	!
=5-	=5-	=5-	=5-	=5-	=5-	=5-	=5-	=5-	=5-	=5-	=5-
*	*	*	*	*	*	*	*	*	*xywh-pl-gd--ee1638-8o--0641:4625,1203,3321,606	*	*
!	!	!	!LO:SIC:s=8gL	!	!	!	!	!	!	!	!
2G/	-mor	-mor	8g\	don-	don-	2B/	-na	-na	4r	.	.
!	!	!	!LO:SIC:s=16fL	!	!	!	!	!	!	!	!
.	.	.	16f\	.	.	.	.	.	.	.	.
!	!	!	!LO:SIC:s=16eJJ	!	!	!	!	!	!	!	!
.	.	.	16e\	.	.	.	.	.	.	.	.
.	.	.	4d\	.	.	.	.	.	4gg\	che	che
!	!	!	!LO:SIC:v:t=custos f	!	!	!LO:SIC:v:t=custos e	!	!	!	!	!
4r	.	.	2e\	-na	-na	2g\	Hor	hor	8gg\	gio-	gio-
.	.	.	.	.	.	.	.	.	8ff\	-ui-	-vi-
4c\	che	che	.	.	.	.	.	.	8ee\	-net-	-net-
.	.	.	.	.	.	.	.	.	8dd\	-ta	-ta
*	*	*	*xywh-pl-gd--ee1638-8o--0337:4532,1252,3378,620	*	*	*xywh-pl-gd--ee1638-8o--0489:4514,1214,3383,664	*	*	*	*	*
!	!	!	!LO:LB:g=original	!	!	!LO:LB:g=original	!	!	!	!	!
8c\	gio-	gio-	2r	.	.	2e/	vedi	ve-	2cc\	don-	don-
8B\	-ui-	-vi-	.	.	.	.	.	.	.	.	.
8A\	-net-	-net-	.	.	.	.	.	.	.	.	.
8G/	-ta	-ta	.	.	.	.	.	.	.	.	.
2F/	don-	don-	2f\	che	che	2a\	a-	di_a-	2cc\	-na	-na
=6-	=6-	=6-	=6-	=6-	=6-	=6-	=6-	=6-	=6-	=6-	=6-
2c\	-na	-na	8e\	gio-	gio-	4g\	-mor	-mor	4r	.	.
.	.	.	8d\	-ui-	-vi-	.	.	.	.	.	.
.	.	.	8c\	-net-	-net-	4g\	che	che	4ee\	che	che
.	.	.	8B/	-ta	-ta	.	.	.	.	.	.
2r	.	.	2A/	don-	don-	8cc\	gio-	gio-	8ee\	gio-	gio-
.	.	.	.	.	.	8b\	-ui-	-vi-	8dd\	-ui-	-vi-
.	.	.	.	.	.	8a\	-net-	-net-	8cc\	-net-	-net-
.	.	.	.	.	.	8g\	-ta	-ta	8b\	-ta	-ta
2r	.	.	1d	-na	-na	4f#X\	don-	don-	4a/	don-	don-
.	.	.	.	.	.	2g\	.	.	4g/	.	.
4r	.	.	.	.	.	.	.	.	2a/	.	.
!LO:SIC:v:t=custos B	!	!	!	!	!	!LO:SIC:s=4f#	!	!	!	!	!
4d\	Tuo	Tuo	.	.	.	4f#X\	.	.	.	.	.
!LO:LB:g=original	!	!	!	!	!	!	!	!	!	!	!
=7-	=7-	=7-	=7-	=7-	=7-	=7-	=7-	=7-	=7-	=7-	=7-
*xywh-pl-gd--ee1638-8o--0185:4592,1261,3453,656	*	*	*	*	*	*	*	*	*	*	*
4B\	re-	re-	4r	.	.	1g	-na	-na	2dd\	-na	-na
4B\	-gno	-gno	4g\	Tuo	Tuo	.	.	.	.	.	.
2c\	ſprez-	ſprez-	4e\	re-	re-	.	.	.	4r	.	.
.	.	.	4e\	-gno	-gno	.	.	.	4ee\	Tuo	Tuo
2A/	-za	-za	2f\	ſprez-	ſprez-	4r	.	.	4cc\	re-	re-
.	.	.	.	.	.	4a\	Tuo	Tuo	4cc\	-gno	-gno
4r	.	.	1d\	-za	-za	4f#X\	re-	re-	4dd\	ſprez-	ſprez-
4d\	e	e	.	.	.	4f#\	-gno	-gno	4a/	-z'e	-za_e
=8-	=8-	=8-	=8-	=8-	=8-	=8-	=8-	=8-	=8-	=8-	=8-
4.G/	del	del	.	.	.	2g\	ſprez-	ſprez-	4.b/	del	del
!	!	!	!	!	!	!	!	!	!LO:SIC:v:t=custos dd	!	!
8A/	mio	mio	.	.	.	.	.	.	8cc\	mio	mio
!	!	!	!	!	!	!	!	!	!LO:LB:g=original	!	!
*	*	*	*	*	*	*	*	*	*xywh-pl-gd--ee1638-8o--0641:4604,1737,3321,586	*	*
4B\	mal	mal	2r	.	.	2d/	-za e	-za_e	4dd\	mal	mal
4B\	nõ	non	.	.	.	.	.	.	4dd\	nõ	non
2A/	cu-	cu-	2r	.	.	4.e/	del	del	2cc\	cu-	cu-
.	.	.	.	.	.	8fny\	mio	mio	.	.	.
4G/	-ra	-ra	4r	.	.	4g\	mal	mal	2b/	-ra	-ra
!	!	!	!	!	!	!LO:SIC:v:t=custos f	!	!	!	!	!
4G/	e	e	4g\	e	e	4d/	nõ-	non	.	.	.
!	!	!	!	!	!	!LO:LB:g=original	!	!	!	!	!
=9-	=9-	=9-	=9-	=9-	=9-	=9-	=9-	=9-	=9-	=9-	=9-
*	*	*	*	*	*	*xywh-pl-gd--ee1638-8o--0489:4555,1795,3529,622	*	*	*	*	*
!	!	!	!	!	!	!LO:SIC:s=8fL	!	!	!	!	!
4.A/	del	del	4.c/	del	del	8f\	-cu-	cu-	2r	.	.
.	.	.	.	.	.	8e\	.	.	.	.	.
.	.	.	.	.	.	8f\	.	.	.	.	.
!	!	!	!	!	!	!LO:SIC:s=8gJ	!	!	!	!	!
8B\	mio	mio	8d\	mio	mio	8g\	.	.	.	.	.
4c\	mal	mal	4e\	mal	mal	2.a\	.	.	4r	.	.
4c\	nõ	non	4e\	nõ	non	.	.	.	4cc\	nõ	non
1B-X	cu-	cu-	1.d	cu-	cu-	.	.	.	2.dd\	cu-	cu-
!	!	!	!	!	!	!LO:SIC:s=8gL	!	!	!	!	!
.	.	.	.	.	.	8g\	.	.	.	.	.
!	!	!	!	!	!	!LO:SIC:s=8fJ	!	!	!	!	!
.	.	.	.	.	.	8f\	.	.	.	.	.
.	.	.	.	.	.	2g\	.	.	.	.	.
.	.	.	.	.	.	.	.	.	4ee\	.	.
=10-	=10-	=10-	=10-	=10-	=10-	=10-	=10-	=10-	=10-	=10-	=10-
1A	-ra	-ra	.	.	.	1a	-ra	-ra	2ff\	.	.
!	!	!	!LO:SIC:v:t=custos d	!	!	!	!	!	!	!	!
.	.	.	2c#X/	-ra	-ra	.	.	.	2ee\	-ra	-ra
!	!	!	!LO:LB:g=original	!	!	!	!	!	!	!	!
*	*	*	*xywh-pl-gd--ee1638-8o--0337:4502,1791,3470,620	*	*	*	*	*	*	*	*
1r	.	.	4r	.	.	1r	.	.	2a/	E	E
.	.	.	2d\	E	E	.	.	.	.	.	.
.	.	.	.	.	.	.	.	.	2b/	tra	tra
.	.	.	2e\	tra	tra	.	.	.	.	.	.
=11-	=11-	=11-	=11-	=11-	=11-	=11-	=11-	=11-	=11-	=11-	=11-
0r	.	.	.	.	.	0r	.	.	2cc\	duo	duo
.	.	.	2f\	duo	duo	.	.	.	.	.	.
.	.	.	.	.	.	.	.	.	2dd\	ta'	tai
.	.	.	2g\	ta'	ta'	.	.	.	.	.	.
.	.	.	.	.	.	.	.	.	4b/	ne-	ne-
.	.	.	4e\	ne-	ne-	.	.	.	2cc\	-mi-	-mi-
.	.	.	4.f\	-mi-	-mi-	.	.	.	.	.	.
.	.	.	.	.	.	.	.	.	4a/	-ciè	-ci_è
.	.	.	8e\	-ci è	-ci è	.	.	.	.	.	.
=12-	=12-	=12-	=12-	=12-	=12-	=12-	=12-	=12-	=12-	=12-	=12-
1G	Tu-	Tu	4d\	ſi	ſi	2r	.	.	4b/	ſi	ſi
.	.	.	4cny/	ſi-	ſi-	.	.	.	2cc\	ſi-	ſi-
.	.	.	2d\	-cu-	-cu-	2.g\	Tu	Tu	.	.	.
.	.	.	.	.	.	.	.	.	4b/	-cu-	-cu-
2A/	-ſe	se'	1c	-ra	-ra	.	.	.	4.cc\	-ra	-ra
.	.	.	.	.	.	2f\	ſe ar-	se_ar-	.	.	.
!	!	!	!	!	!	!	!	!	!LO:SIC:s=16bLL	!	!
.	.	.	.	.	.	.	.	.	16b/	.	.
!	!	!	!	!	!	!	!	!	!LO:SIC:s=16aJJ	!	!
.	.	.	.	.	.	.	.	.	16a/	.	.
!LO:SIC:v:t=custos B	!	!	!	!	!	!	!	!	!LO:SIC:v:t=custos ee	!	!
2c\	ar-	ar-	.	.	.	.	.	.	2g/	.	.
.	.	.	.	.	.	4e/	-ma-	-ma-	.	.	.
!LO:LB:g=original	!	!	!	!	!	!	!	!	!LO:LB:g=original	!	!
=13-	=13-	=13-	=13-	=13-	=13-	=13-	=13-	=13-	=13-	=13-	=13-
*xywh-pl-gd--ee1638-8o--0185:4673,1813,3361,598	*	*	*	*	*	*	*	*	*xywh-pl-gd--ee1638-8o--0641:4635,2220,3382,658	*	*
2Bny\	-ma-	-ma-	2r	.	.	2d/	-to	-to	2r	.	.
2c\	-to	-to	4r	.	.	4e/	&	et	4r	.	.
.	.	.	4c/	&	et	2g\	ella	el-	4ee\	&	et
1r	.	.	4c/	ella	el-	.	.	.	4ee\	ella	el-
.	.	.	4c/	in	-la_in	4a\	in	-la_in	4ee\	in	-la_in
.	.	.	4g\	trec-	trec-	4b\	trec-	trec-	2dd\	trec-	trec-
!	!	!	!LO:SIC:s=8f#L	!	!	!LO:SIC:s=8aL	!	!	!	!	!
.	.	.	8f#X\	.	.	8a\	.	.	.	.	.
!	!	!	!LO:SIC:s=8eJ	!	!	!LO:SIC:s=8gJ	!	!	!	!	!
.	.	.	8e\	.	.	8g\	.	.	.	.	.
=14-	=14-	=14-	=14-	=14-	=14-	=14-	=14-	=14-	=14-	=14-	=14-
0r	.	.	4f#X\	-cie	.	4a\	-cie	.	2dd\	-cie e'n	-cie_e'n
.	.	.	4g\	e'n	-cie_e'n	4b\	e'n	-cie_e'n	.	.	.
.	.	.	2c/	gon-	gon-	2cc\	gon-	gon-	2ee\	gon-	gon-
.	.	.	2g\	-na	-na	4b\	-na	-na	4dd\	-na	-na
!	!	!	!	!	!	!LO:SIC:v:t=custos aa	!	!	!	!	!
.	.	.	.	.	.	4g\	Tu	Tu	2gg\	Tu	Tu
!	!	!	!	!	!	!LO:LB:g=original	!	!	!	!	!
*	*	*	*	*	*	*xywh-pl-gd--ee1638-8o--0489:4493,2335,3404,581	*	*	*	*	*
.	.	.	2r	.	.	2a\	ſe	se'	.	.	.
.	.	.	.	.	.	.	.	.	2ff\	ſe	se'
=15-	=15-	=15-	=15-	=15-	=15-	=15-	=15-	=15-	=15-	=15-	=15-
2r	.	.	2r	.	.	2cc\	ar-	ar-	.	.	.
.	.	.	.	.	.	.	.	.	4ee\	ar-	ar-
4r	.	.	4r	.	.	2b\	-ma-	-ma-	2dd\	-ma-	-ma-
!	!	!	!LO:SIC:v:t=custos e	!	!	!	!	!	!	!	!
*	*	*	*	*ij	*ij	*	*	*	*	*	*
4G/	&	et	4d\	&	et	.	.	.	.	.	.
!	!	!	!LO:LB:g=original	!	!	!	!	!	!	!	!
*	*	*	*xywh-pl-gd--ee1638-8o--0337:4532,2290,3429,651	*	*	*	*	*	*	*	*
4c\	el-	el-	4e\	ella	el-	1.g	-to	-to	2cc\	-to	-to
4c\	-la	-la_in	4e\	in	-la_in	.	.	.	.	.	.
4c\	in	trec-	4e\	trec-	trec-	.	.	.	2r	.	.
!LO:SIC:s=8BL	!	!	!LO:SIC:s=8dL	!	!	!	!	!	!	!	!
8B\	trec-	.	8d\	.	.	.	.	.	.	.	.
!LO:SIC:s=8AJ	!	!	!LO:SIC:s=8cJ	!	!	!	!	!	!	!	!
8A\	.	.	8c\	.	.	.	.	.	.	.	.
=16-	=16-	=16-	=16-	=16-	=16-	=16-	=16-	=16-	=16-	=16-	=16-
4B\	-cie	.	4d\	-cie	.	.	.	.	2r	.	.
4c\	e'n	cie_e'n	4e\	e'n	-cie_e'n	.	.	.	.	.	.
1F	gon-	gon-	1fny	gõn-	gon-	4r	.	.	4r	.	.
.	.	.	.	.	.	4a\	&	et	4cc\	&	et
.	.	.	.	.	.	4a\	ella	el-	4cc\	ella	el-
.	.	.	.	.	.	4a\	in	-la_in	4cc\	in	-la_in
2c\	-na	-na	2e\	-na	-na	4a\	trec-	trec-	4cc\	trec-	trec-
!	!	!	!	!	!	!LO:SIC:s=8gL	!	!	!LO:SIC:s=8bL	!	!
.	.	.	.	.	.	8g\	.	.	8b/	.	.
!	!	!	!	!	!	!LO:SIC:s=8fJ	!	!	!LO:SIC:s=8aJ	!	!
.	.	.	.	.	.	8f\	.	.	8a/	.	.
*	*	*	*	*Xij	*Xij	*	*	*	*	*	*
=17-	=17-	=17-	=17-	=17-	=17-	=17-	=17-	=17-	=17-	=17-	=17-
4r	.	.	4r	.	.	4g\	-cie	.	4b/	.	.
!	!	!	!	!	!	!	!	!	!LO:SIC:v:t=custos dd	!	!
4A/	&	et	4e\	&	et	4a\	e'n	-cie_e'n	4cc#X\	-cie e'n	-cie_e'n
!	!	!	!	!	!	!	!	!	!LO:LB:g=original	!	!
*	*	*	*	*	*	*	*	*	*xywh-pl-gd--ee1638-8o--0641:4583,2827,3434,606	*	*
4d\	el-	el-	4f\	ella	el-	2a\	gõ-	gon-	2dd\	gon-	gon-
4d\	-la	-la_in	4f\	in	-la_in	.	.	.	.	.	.
4d\	in	trec-	4f\	trec-	trec-	1a	-na	-na	2dd\	-na	-na
!LO:SIC:s=8c#iL	!	!	!LO:SIC:s=8eL	!	!	!	!	!	!	!	!
8c\	trec-	.	8e\	.	.	.	.	.	.	.	.
!LO:SIC:s=8BJ	!	!	!LO:SIC:s=8dJ	!	!	!	!	!	!	!	!
8B\	.	.	8d\	.	.	.	.	.	.	.	.
4c#X\	-cie	.	4e\	-cie	.	.	.	.	2r	.	.
!LO:SIC:v:t=custos G	!	!	!	!	!	!	!	!	!	!	!
4d\	e'n	-cie_e'n	4f#X\	e'n	-cie_e'n	.	.	.	.	.	.
!LO:LB:g=original	!	!	!	!	!	!	!	!	!	!	!
=18-	=18-	=18-	=18-	=18-	=18-	=18-	=18-	=18-	=18-	=18-	=18-
*xywh-pl-gd--ee1638-8o--0185:4592,2308,3372,633	*	*	*	*	*	*	*	*	*	*	*
2G/	gon-	gon-	2g\	go-	gon-	2r	.	.	1dd	Si	Si
2d\	-na	-na	2fny\	-na	-na	2a\	Si	Si	.	.	.
1A	Si	Si	1e	Si	Si	0a	ſie-	ſie-	0ccny	ſie-	ſie-
=19-	=19-	=19-	=19-	=19-	=19-	=19-	=19-	=19-	=19-	=19-	=19-
1A	ſie-	sie-	1e	ſie-	ſie-	.	.	.	.	.	.
1E	-de	-de_e	1e	-de e	-de_e	1g#X	-de e	-de_e	1b	-de e	-de_e
=20-	=20-	=20-	=20-	=20-	=20-	=20-	=20-	=20-	=20-	=20-	=20-
1A	e ſcal-	scal-	1e	ſcal-	ſcal-	1a	ſcal-	ſcal-	1cc	ſcal-	scal-
2G/	-za	-za	2g\	-za	-za_in	2b\	-za in	-za_in	2dd\	-za in	-za_in
2r	.	.	4f#X\	in	me-	4a\	mez'i	me-	4dd\	mez'	me-
!	!	!	!LO:SIC:v:t=custos c	!	!	!	!	!	!	!	!
.	.	.	4g\	mez'i	-zo_i	4b\	ſio-	-zo_i	4dd\	i	-zo_i
!	!	!	!LO:LB:g=original	!	!	!	!	!	!	!	!
=21-	=21-	=21-	=21-	=21-	=21-	=21-	=21-	=21-	=21-	=21-	=21-
*	*	*	*xywh-pl-gd--ee1638-8o--0337:4492,2829,3429,661	*	*	*	*	*	*	*	*
!	!	!	!LO:SIC:s=8cL	!	!	!	!	!	!	!	!
0r	.	.	8c/	ſio-	fio-	4cc\	-ri	fio-	4.ee\	ſio-	fio-
.	.	.	8d\	.	.	.	.	.	.	.	.
!	!	!	!	!	!	!LO:SIC:s=8cL	!	!	!	!	!
.	.	.	8e\	.	.	8c/	e-	-ri_e	.	.	.
!	!	!	!	!	!	!LO:SIC:s=8dJ	!	!	!	!	!
!	!	!	!LO:SIC:s=8fJ	!	!	!LO:SIC:v:t=custos e	!	!	!LO:SIC:s=16ddLL	!	!
.	.	.	8fny\	.	.	8d/	.	.	16dd\	.	.
!	!	!	!	!	!	!	!	!	!LO:SIC:s=16ccJJ	!	!
.	.	.	.	.	.	.	.	.	16cc\	.	.
*	*	*	*	*	*	*xywh-pl-gd--ee1638-8o--0489:4566,2844,3383,653	*	*	*	*	*
!	!	!	!	!	!	!LO:LB:g=original	!	!	!	!	!
!	!	!	!	!	!	!LO:SIC:s=8eL	!	!	!	!	!
.	.	.	4g\	.	.	8e\	.	.	4b/	.	.
.	.	.	.	.	.	8f\	.	.	.	.	.
.	.	.	4e\	-riel'	-ri_e	8gny\	.	.	4cc\	-ri e	-ri_e
!	!	!	!	!	!	!LO:SIC:s=8eJ	!	!	!	!	!
.	.	.	.	.	.	8e\	.	.	.	.	.
.	.	.	1d	her-	l'her-	4f#X\	.	.	4dd\	l'her-	l'her-
!	!	!	!	!	!	!	!	!	!LO:SIC:s=8ccL	!	!
.	.	.	.	.	.	2g\	-l'her-	-l'her-	8cc\	.	.
!	!	!	!	!	!	!	!	!	!LO:SIC:s=8bJ	!	!
.	.	.	.	.	.	.	.	.	8b\	.	.
.	.	.	.	.	.	.	.	.	2a/	.	.
!	!	!	!	!	!	!LO:SIC:s=4f#	!	!	!	!	!
.	.	.	.	.	.	4f#X\	.	.	.	.	.
=22-	=22-	=22-	=22-	=22-	=22-	=22-	=22-	=22-	=22-	=22-	=22-
!	!	!	!LO:SIC:s=8GL	!	!	!	!	!	!	!	!
2r	.	.	8G/	-ba	-ba	2g\	-ba	-ba	2.b/	-ba	-ba
.	.	.	8A/	.	.	.	.	.	.	.	.
.	.	.	8B/	.	.	.	.	.	.	.	.
!	!	!	!LO:SIC:s=8cJ	!	!	!	!	!	!	!	!
.	.	.	8c/	.	.	.	.	.	.	.	.
1G	I	I'	2d\	.	.	1b	I	I'	.	.	.
.	.	.	.	.	.	.	.	.	4cc\	.	.
.	.	.	1r	.	.	.	.	.	1dd	.	.
1F/	ſon	ſon	.	.	.	1a\	ſon	ſon	.	.	.
=23-	=23-	=23-	=23-	=23-	=23-	=23-	=23-	=23-	=23-	=23-	=23-
.	.	.	2r	.	.	.	.	.	2r	.	.
2E/	pri-	pri-	1g	I	I'	2b\	pri-	pri-	1ee	I	I'
0A	-gion	-gion	.	.	.	4cc\	-gion	-gion	.	.	.
.	.	.	.	.	.	4b\	.	.	.	.	.
.	.	.	1f\	ſon	ſon	4a\	.	.	1dd\	sõ	son
.	.	.	.	.	.	4g\	.	.	.	.	.
=24-	=24-	=24-	=24-	=24-	=24-	=24-	=24-	=24-	=24-	=24-	=24-
.	.	.	.	.	.	1a	.	.	.	.	.
.	.	.	2e\	pri-	pri-	.	.	.	2.cc\	pri-	pri-
2r	.	.	2d\	-gion	-gion	0r	.	.	.	.	.
!	!	!	!	!	!	!	!	!	!LO:SIC:s=8bL	!	!
.	.	.	.	.	.	.	.	.	8b/	.	.
!	!	!	!	!	!	!	!	!	!LO:SIC:s=8aJ	!	!
.	.	.	.	.	.	.	.	.	8a/	.	.
!	!	!	!	!	!	!	!	!	!LO:SIC:v:t=custos cc	!	!
2G/	ma	ma	4r	.	.	.	.	.	2b\	.	.
.	.	.	2g\	ma	ma	.	.	.	.	.	.
!	!	!	!	!	!	!	!	!	!LO:LB:g=original	!	!
=25-	=25-	=25-	=25-	=25-	=25-	=25-	=25-	=25-	=25-	=25-	=25-
*	*	*	*	*	*	*	*	*	*xywh-pl-gd--ee1638-8o--0641:4614,3352,3341,668	*	*
2A/	ſe	ſe	.	.	.	.	.	.	2cc\	-gion	-gion
.	.	.	2f\	ſe	ſe	.	.	.	.	.	.
4B\	pie-	pie-	.	.	.	.	.	.	2r	.	.
2cny\	-tà an-	-tà_an-	4e\	pie-	pie-	.	.	.	.	.	.
.	.	.	2d\	-tà an-	-tà_an-	2g\	ma	ma	4r	.	.
4B\	-cor	-cor	.	.	.	.	.	.	2gg\	ma	ma
2A/	ſer-	ſer-	2c/	-cor	-cor	2a\	ſe	ſe	.	.	.
.	.	.	.	.	.	.	.	.	2ff\	ſe	ſe
=26-	=26-	=26-	=26-	=26-	=26-	=26-	=26-	=26-	=26-	=26-	=26-
2G/	-ba	-ba	2g\	ſer-	ſer-	4b\	pie-	pie-	.	.	.
.	.	.	.	.	.	2cc\	-tà an-	-tà_an-	4ee\	pie-	pie-
!LO:SIC:v:t=custos A	!	!	!	!	!	!	!	!	!	!	!
2G/	ma	ma	4g\	-ba	-ba	.	.	.	2dd\	-tà an-	-tà_an-
.	.	.	2g\	ma	ma	4b\	-cor	-cor	.	.	.
!LO:LB:g=original	!	!	!	!	!	!	!	!	!	!	!
*xywh-pl-gd--ee1638-8o--0185:4673,2884,3361,610	*	*	*	*	*	*	*	*	*	*	*
2A/	ſe	ſe	.	.	.	2a\	ſer-	ſer-	2cc\	-cor	-cor
.	.	.	2f\	ſe	ſe	.	.	.	.	.	.
4B\	pie-	pie-	.	.	.	2g\	-ba	-ba	4dd\	ſer-	ſer-
!	!	!	!LO:SIC:v:t=custos d	!	!	!	!	!	!	!	!
2c\	-tà an-	-tà_an-	4e\	pie-	pie-	.	.	.	4g/	-ba	-ba
!	!	!	!LO:LB:g=original	!	!	!	!	!	!	!	!
=27-	=27-	=27-	=27-	=27-	=27-	=27-	=27-	=27-	=27-	=27-	=27-
!	!	!	!	!	!	!LO:SIC:v:t=custos a	!	!	!	!	!
*	*	*	*xywh-pl-gd--ee1638-8o--0337:4573,3379,3358,651	*	*	*	*	*	*	*	*
.	.	.	2d\	-tà an-	-tà_an-	2g\	ma	ma	4r	.	.
4B\	-cor	-cor	.	.	.	.	.	.	2gg\	ma	ma
!	!	!	!	!	!	!LO:LB:g=original	!	!	!	!	!
*	*	*	*	*	*	*xywh-pl-gd--ee1638-8o--0489:4514,3373,3404,695	*	*	*	*	*
2A/	ſer-	ſer-	2c/	-cor	-cor	2a\	ſe	ſe	.	.	.
.	.	.	.	.	.	.	.	.	2ff\	ſe	ſe
1G	-ba	-ba	2g\	ſer-	ſer-	4b\	pie-	pie-	.	.	.
.	.	.	.	.	.	2cc\	-tà an-	-tà_an-	4ee\	pie-	pie-
.	.	.	2g\	-ba	-ba	.	.	.	4dd\	-tà an-	-tà_an-
.	.	.	.	.	.	4b\	-cor	-cor	4gg\	-cor	-cor
=28-	=28-	=28-	=28-	=28-	=28-	=28-	=28-	=28-	=28-	=28-	=28-
1r	.	.	1r	.	.	2a\	ſer-	ſer-	2ff#X\	ſer-	ſer-
.	.	.	.	.	.	2g\	-ba	-ba	2gg\	-ba	-ba
!	!	!	!	!	!	!	!	!	!LO:SIC:s=8gL	!	!
1G	L' ar-	L'ar-	2r	.	.	1b	L'ar-	L'ar-	8g/	L'ar	L'ar-
.	.	.	.	.	.	.	.	.	8a/	.	.
.	.	.	.	.	.	.	.	.	8b/	.	.
!	!	!	!	!	!	!	!	!	!LO:SIC:s=8ccJ	!	!
.	.	.	.	.	.	.	.	.	8cc\	.	.
!	!	!	!LO:SIC:s=8GL	!	!	!	!	!	!	!	!
.	.	.	8G/	L'ar-	L'ar-	.	.	.	2dd\	.	.
.	.	.	8A/	.	.	.	.	.	.	.	.
.	.	.	8B/	.	.	.	.	.	.	.	.
!	!	!	!LO:SIC:s=8cJ	!	!	!	!	!	!	!	!
.	.	.	8c/	.	.	.	.	.	.	.	.
=29-	=29-	=29-	=29-	=29-	=29-	=29-	=29-	=29-	=29-	=29-	=29-
1G	-co	-co	2d\	.	.	1g	-co	-co	4.b/	co	-co
.	.	.	.	.	.	.	.	.	8cc\	tuo	tuo
!	!	!	!	!	!	!	!	!	!LO:SIC:v:t=custos g	!	!
.	.	.	4.B/	-co	-co	.	.	.	2dd\	ſal-	ſal-
.	.	.	8c/	tuo	tuo	.	.	.	.	.	.
!	!	!	!	!	!	!	!	!	!LO:LB:g=original	!	!
1G	tuo	tuo	2d\	ſal-	ſal-	1b	tuo	tuo	2g/	-c'o e	-do_e
.	.	.	4G/	-d'e	-do_e	.	.	.	4.gg\	qu-	qual-
.	.	.	4.g\	qu-	qual-	.	.	.	.	.	.
.	.	.	.	.	.	.	.	.	8ffny\	-alch'v-	-ch'u-
=30-	=30-	=30-	=30-	=30-	=30-	=30-	=30-	=30-	=30-	=30-	=30-
1c	ſal-	ſal-	.	.	.	4cc\	ſald'	ſal-	4ee\	-na	-na
.	.	.	8f\	-alch'v-	-ch'u-	.	.	.	.	.	.
.	.	.	2e\	-na	-na	4c/	e	-do_e	4gg\	ſa-	ſa-
!	!	!	!	!	!	!	!	!	!LO:SIC:s=8ccL	!	!
.	.	.	.	.	.	4.g\	qu-	qual-	8cc\	-et-	-et-
.	.	.	.	.	.	.	.	.	8dd\	.	.
.	.	.	4g\	ſaet-	sa-	.	.	.	8ee\	.	.
!	!	!	!	!	!	!	!	!	!LO:SIC:s=8ffJ	!	!
.	.	.	.	.	.	8fny\	-alch'v-	-ch'u-	8ff\	.	.
!	!	!	!LO:SIC:s=8cL	!	!	!	!	!	!	!	!
2c\	-do	-do	8c\	.	-et-	4e/	-na	-na	4gg\	.	.
.	.	.	8d\	.	.	.	.	.	.	.	.
.	.	.	8e\	.	.	4g\	ſaet-	sa-	4gg\	-ta	-ta
!	!	!	!LO:SIC:s=8fJ	!	!	!	!	!	!	!	!
.	.	.	8f\	.	.	.	.	.	.	.	.
!	!	!	!	!	!	!LO:SIC:s=8cL	!	!	!	!	!
4r	.	.	4g\	.	.	8c/	.	-et-	4r	.	.
.	.	.	.	.	.	8d/	.	.	.	.	.
4c\	e	e	4g\	-ta	-ta	8e/	.	.	4ee\	e	e
!	!	!	!	!	!	!LO:SIC:s=8fJ	!	!	!	!	!
.	.	.	.	.	.	8f\	.	.	.	.	.
=31-	=31-	=31-	=31-	=31-	=31-	=31-	=31-	=31-	=31-	=31-	=31-
4.c\	qu-	qual-	4r	.	.	4g\	.	.	4.ee\	qu-	qual-
.	.	.	4e\	e	e	4g\	-ta	-ta	.	.	.
8B\	-alch'v-	-ch'u-	.	.	.	.	.	.	8dd\	-alch'	-ch'u-
4A/	-na	-na	4.e\	qu-	qual-	4r	.	.	4cc\	u-	-na
4c\	ſaet-	sa-	.	.	.	4g\	e	e	4ee\	-na	sa-
!	!	!	!LO:SIC:v:t=custos c	!	!	!	!	!	!	!	!
.	.	.	8d\	-alch'u-	-ch'u-	.	.	.	.	.	.
*	*	*	*xywh-pl-gd--ee1638-8o--0337:4512,3938,3449,630	*	*	*	*	*	*	*	*
!	!	!	!LO:LB:g=original	!	!	!	!	!	!	!	!
!LO:SIC:s=8FL	!	!	!	!	!	!	!	!	!	!	!
8F/	.	-et-	4c/	-na	-na	4a\	qu-	qual-	2ff\	ſaet-	-et-
8G/	.	.	.	.	.	.	.	.	.	.	.
!	!	!	!	!	!	!LO:SIC:v:t=custos g	!	!	!	!	!
8A/	.	.	4c/	ſaet-	sa-	4a\	-alch'u-	-ch'u-	.	.	.
!LO:SIC:s=8BJ	!	!	!	!	!	!	!	!	!	!	!
8B\	.	.	.	.	.	.	.	.	.	.	.
!	!	!	!	!	!	!LO:LB:g=original	!	!	!	!	!
*	*	*	*	*	*	*xywh-pl-gd--ee1638-8o--0489:4493,3954,3498,643	*	*	*	*	*
!	!	!	!LO:SIC:s=8cL	!	!	!	!	!	!	!	!
4c\	.	.	8c/	.	-et-	4.g\	-na	-na	2ee\	-ta	-ta
.	.	.	8d\	.	.	.	.	.	.	.	.
!LO:SIC:v:t=custos G	!	!	!	!	!	!	!	!	!	!	!
4c\	-ta	-ta	8e\	.	.	.	.	.	.	.	.
!	!	!	!LO:SIC:s=8fJ	!	!	!	!	!	!	!	!
.	.	.	8f\	.	.	8a\	ſaet-	sa-	.	.	.
!LO:LB:g=original	!	!	!	!	!	!	!	!	!	!	!
=32-	=32-	=32-	=32-	=32-	=32-	=32-	=32-	=32-	=32-	=32-	=32-
*xywh-pl-gd--ee1638-8o--0185:4592,3436,3407,621	*	*	*	*	*	*	*	*	*	*	*
!LO:SIC:s=8GL	!	!	!	!	!	!	!	!	!	!	!
8G/	L'ar-	L'ar-	4g\	.	.	2b\	-ta	-et-	1dd	L'ar-	L'ar-
8A/	.	.	.	.	.	.	.	.	.	.	.
8B\	.	.	4g\	-ta	-ta	.	.	.	.	.	.
!LO:SIC:s=8cJ	!	!	!	!	!	!	!	!	!	!	!
8c\	.	.	.	.	.	.	.	.	.	.	.
!	!	!	!LO:SIC:s=8GL	!	!	!	!	!	!	!	!
2d\	.	.	8G/	L'ar-	L'ar-	2b\	.	-ta	.	.	.
.	.	.	8A/	.	.	.	.	.	.	.	.
.	.	.	8B/	.	.	.	.	.	.	.	.
!	!	!	!LO:SIC:s=8cJ	!	!	!	!	!	!	!	!
.	.	.	8c/	.	.	.	.	.	.	.	.
4.B\	-co	-co	2d\	.	.	4r	.	.	1dd	-co	-co
*	*	*	*	*	*	*	*ij	*ij	*	*	*
.	.	.	.	.	.	4g\	e	e	.	.	.
8c\	tuo	tuo	.	.	.	.	.	.	.	.	.
2d\	ſal-	ſal-	4.B/	-co	-co	4.G/	qu-	qual-	.	.	.
.	.	.	8c/	tuo	tuo	8A/	-alch'u-	-ch'u-	.	.	.
=33-	=33-	=33-	=33-	=33-	=33-	=33-	=33-	=33-	=33-	=33-	=33-
2G/	-do	-do_e	4d\	ſal-	ſal-	4B/	-na	-na	1dd	tuo	tuo
.	.	.	4B/	-do	-do	4d/	ſaet-	sa-	.	.	.
!	!	!	!	!	!	!LO:SIC:s=8dL	!	!	!	!	!
4.G/	e	qual-	4r	.	.	8d/	.	-et-	.	.	.
.	.	.	.	.	.	8c/	.	.	.	.	.
.	.	.	4g\	e	e	8B/	.	.	.	.	.
!	!	!	!	!	!	!LO:SIC:s=8AJ	!	!	!	!	!
8F/	qu-	-ch'u-	.	.	.	8A/	.	.	.	.	.
4E/	-alch' u-	-na	4.g\	qu-	qual-	2B/	.	.	1gg	ſal-	ſal-
4G/	-na	sa-	.	.	.	.	.	.	.	.	.
.	.	.	8f\	-alch'u-	-ch'u-	.	.	.	.	.	.
!LO:SIC:s=8CL	!	!	!	!	!	!	!	!	!	!	!
8C/	ſaet-	-et-	4e\	-na	-na	2c/	-ta	-ta	.	.	.
8D/	.	.	.	.	.	.	.	.	.	.	.
8E/	.	.	4g\	ſaet-	sa-	.	.	.	.	.	.
!LO:SIC:s=8FJ	!	!	!	!	!	!	!	!	!	!	!
8F/	.	.	.	.	.	.	.	.	.	.	.
=34-	=34-	=34-	=34-	=34-	=34-	=34-	=34-	=34-	=34-	=34-	=34-
!	!	!	!LO:SIC:s=8gL	!	!	!	!	!	!	!	!
4G/	.	.	8g\	.	-et-	4r	.	.	2gg\	-do	-do
.	.	.	8f\	.	.	.	.	.	.	.	.
4G/	-ta	-ta	8e\	.	.	4B/	e qu-	e	.	.	.
!	!	!	!LO:SIC:s=8dJ	!	!	!	!	!	!	!	!
.	.	.	8d\	.	.	.	.	.	.	.	.
4r	.	.	4c/	.	.	4.g\	-alch'	qual-	4r	.	.
!LO:SIC:v:t=custos c	!	!	!	!	!	!	!	!	!LO:SIC:v:t=custos ee	!	!
4C/	e	e	4c/	-ta	-ta	.	.	.	4ee\	e	e
.	.	.	.	.	.	8f\	u-	ch'u-	.	.	.
*xywh-pl-gd--ee1638-8o--0185:4673,3977,3338,621	*	*	*	*	*	*	*	*	*xywh-pl-gd--ee1638-8o--0641:4553,4380,3393,781	*	*
!LO:LB:g=original	!	!	!	!	!	!	!	!	!LO:LB:g=original	!	!
4.c\	qu-	qual-	4r	.	.	4e/	-na	-na	4.ee\	qu-	qual-
!	!	!	!LO:SIC:v:t=custos e	!	!	!	!	!	!	!	!
*	*	*	*	*ij	*ij	*	*	*	*	*	*
.	.	.	4e\	e	e	4g\	e qu-	e	.	.	.
8B\	-alch' u-	-ch'u-	.	.	.	.	.	.	8dd\	-alch'	-ch'u-
!	!	!	!LO:LB:g=original	!	!	!	!	!	!	!	!
*	*	*	*xywh-pl-gd--ee1638-8o--0337:4604,4518,3368,702	*	*	*	*	*	*	*	*
4A/	-na	-na	4.e\	qu-	qual-	4.a\	-alch'	qual-	4cc\	u-	-na
4c\	ſaet-	sa-	.	.	.	.	.	.	4ee\	-na	sa-
.	.	.	8d\	-alch'u-	-ch'u-	8b\	u-	ch'u-	.	.	.
=35-	=35-	=35-	=35-	=35-	=35-	=35-	=35-	=35-	=35-	=35-	=35-
!LO:SIC:s=8FL	!	!	!	!	!	!	!	!	!LO:SIC:s=8aL	!	!
8F/	.	-et-	4c/	-na	-na	4cc\	-na	-na	8a/	ſaet-	-et-
8G/	.	.	.	.	.	.	.	.	8b/	.	.
!	!	!	!	!	!	!LO:SIC:v:t=custos g	!	!	!	!	!
*	*	*	*	*	*	*	*Xij	*Xij	*	*	*
8A/	.	.	4f\	ſaet-	sa-	4a\	ſa-	ſa-	8cc\	.	.
!LO:SIC:s=8BJ	!	!	!	!	!	!	!	!	!LO:SIC:s=8ddJ	!	!
8B\	.	.	.	.	.	.	.	.	8dd\	.	.
*	*	*	*	*	*	*xywh-pl-gd--ee1638-8o--0489:4514,4463,3466,788	*	*	*	*	*
!	!	!	!	!	!	!LO:LB:g=original	!	!	!	!	!
!	!	!	!LO:SIC:s=8eL	!	!	!LO:SIC:s=8gL	!	!	!	!	!
4c\	.	.	8e\	.	-et-	8g\	-et-	-et-	4ee\	.	.
.	.	.	8f\	.	.	8f\	.	.	.	.	.
4c\	-ta	-ta	8g\	.	.	8e\	.	.	4ee\	-ta	-ta
!	!	!	!LO:SIC:s=8fJ	!	!	!LO:SIC:s=8dJ	!	!	!	!	!
.	.	.	8f\	.	.	8d/	.	.	.	.	.
2r	.	.	4e\	.	.	4c/	.	.	2r	.	.
.	.	.	4e\	-ta	-ta	4c/	-ſa	-ta	.	.	.
4c\	Fa-	Fa	2r	.	.	2r	.	.	4ee\	Fa-	Fa
4d\	-di-	di	.	.	.	.	.	.	4ff\	-di-	di
*	*	*	*	*Xij	*Xij	*	*	*	*	*	*
=36-	=36-	=36-	=36-	=36-	=36-	=36-	=36-	=36-	=36-	=36-	=36-
2e\	-te	te	4c/	Fa-	Fa	4e/	Fa-	Fa	2gg\	-te	te
.	.	.	4d\	-di-	di	4f\	-di-	di	.	.	.
4c\	Fa-	Fa	2e\	-te	te	2g\	-te	te	4ee\	Fa-	Fa
4d\	-di-	di	.	.	.	.	.	.	4ff\	-di-	di
2e\	-te	te	4c/	Fa-	Fa	4e/	Fa-	Fa	2gg\	-te	te
.	.	.	4d\	-di-	di	4f\	-di-	di	.	.	.
4e\	e	e	2e\	-te	te	2g\	-te	te	4gg\	e	e
4d\	di	di	.	.	.	.	.	.	4ff\	di	di
=37-	=37-	=37-	=37-	=37-	=37-	=37-	=37-	=37-	=37-	=37-	=37-
2c\	me	me	4e\	e	e	4g\	e	e	1ee	me	me
.	.	.	4f\	di	di	4f\	di	di	.	.	.
2C/	ſi-	ſi-	1g	me	me	2e/	me	me	.	.	.
!LO:SIC:v:t=custos C	!	!	!	!	!	!	!	!	!	!	!
1G	-gnor	-gnor	.	.	.	2d/	ſi-	ſi-	2r	.	.
.	.	.	2G/	ſi-	ſi-	1g\	-gnor	-gnor	2b/	ſi-	ſi-
!LO:LB:g=original	!	!	!	!	!	!	!	!	!	!	!
=38-	=38-	=38-	=38-	=38-	=38-	=38-	=38-	=38-	=38-	=38-	=38-
*xywh-pl-gd--ee1638-8o--0185:4673,4472,3372,851	*	*	*	*	*	*	*	*	*	*	*
2r	.	.	1c	-gnor	-gnor	.	.	.	1ee	-gnor	-gnor
2C/	ſi-	ſi-	.	.	.	2g\	ſi-	ſi-	.	.	.
!	!	!	!	!	!	!LO:SIC:s=1b	!	!	!	!	!
1.G	-gnor	-gnor	2r	.	.	1b#X	-gnor	-gnor	2dd\	ſi-	ſi-
.	.	.	2d\	ſi-	ſi-	.	.	.	2gg\	-gnor	-gnor
=39-	=39-	=39-	=39-	=39-	=39-	=39-	=39-	=39-	=39-	=39-	=39-
.	.	.	4B/	-gnor	-gnor	2.g\	ven-	ven-	2r	.	.
.	.	.	4B/	ve-	ven-	.	.	.	.	.	.
*	*	*	*	*	*	*	*	*	*	*ij	*ij
2E/	ven-	ven-	2.c/	-det-	-det-	.	.	.	2g/	ſi-	ſi-
.	.	.	.	.	.	4e/	.	.	.	.	.
0D	-det-	-det-	.	.	.	2f#X\	.	.	2dd\	-gnor	-gnor
!	!	!	!LO:SIC:s=8BL	!	!	!	!	!	!	!	!
.	.	.	8B/	.	.	.	.	.	.	.	.
!	!	!	!LO:SIC:s=8AJ	!	!	!	!	!	!	!	!
.	.	.	8A/	.	.	.	.	.	.	.	.
*	*	*	*	*	*	*	*	*	*	*Xij	*Xij
.	.	.	4B/	.	.	1g\	-det-	-det-	2b/	ve-	ven-
.	.	.	4c/	.	.	.	.	.	.	.	.
=40-	=40-	=40-	=40-	=40-	=40-	=40-	=40-	=40-	=40-	=40-	=40-
.	.	.	1d	.	.	.	.	.	1a	-det-	-det-
.	.	.	.	.	.	2f#X\	.	.	.	.	.
!LO:MO:mod=!LO&colon;N&colon;vis=0	!	!	!LO:MO:mod=!LO&colon;N&colon;vis=0	!	!	!LO:MO:mod=!LO&colon;N&colon;vis=0	!	!	!LO:MO:mod=!LO&colon;N&colon;vis=0	!	!
!null	!	!	!null	!	!	!null	!	!	!null	!	!
1Gl	-ta.	-ta.	1dl	-ta.	-ta.	1gl	-ta.	-ta.	1bl	-ta.	-ta.
==	==	==	==	==	==	==	==	==	==	==	==
*-	*-	*-	*-	*-	*-	*-	*-	*-	*-	*-	*-
!!!system-decoration: [(*)]
!!LO:MO:ori
!!!RDF**kern: l = terminal long
!!LO:MO:mod
!! !!!RDF**kern: i = editorial accidental
!!LO:MO:end
!!!filter-modern: shed -e "s/^custos:/Xcustos:/I" | shed -e "s/TX(.*):t=P:/tx$1:t=P:/LG" | sic -sq | modori -m | autostem -r | tie -s | humtr -p | shed -e "s/-//B"
!!!ENC: Berenika Jozajtis
!!!END: 2022-06-26
!!!EED: Natalia Wrzos
!!!EEV: 2022-07-08
!!!ENC-modern: Andrzej Kubiczek
!!!END-modern: 2022-10-15
!!!ENC-iiif: Zuzanna Daniec
!!!END-iiif: 2022-09-01
